!!!!SEGMENT: pl-sa--565-a-ix-45--006_anonim--keyboard-piece.krn
!!!cenid: 18xx:597
!!!COM: Anonim
!!!COM-rismid: pe30004985
!!!CDT:
!!!CNT:
!!!OTL: [Keyboard piece]
!!!PDT:
!!!AGN: Secular
!!!SMS-siglum: PL-SA
!!!SMS-shelfmark: 565/A IX 45
!!!SMS-shelfwork: 006 W
!!!SMS-variant:
!!!SMS-altvar:
!!!NIFC-rismid: 1001077287
!!!system-decoration: [(s1,s2)]
!!!key:
**kern	**kern
*part2	*part1
*staff2	*staff1
*Iempty	*Ipiano
*	*I"Piano
*	*I'Pno.
*clefF4	*clefG2
*k[b-]	*k[b-]
*F:	*F:
*M3/4	*M3/4
*>[A,A,B,B,C,C,D,D]	*>[A,A,B,B,C,C,D,D]
=1	=1
*>A	*>A
*clefG2	*
!LO:TX:a:t=P:problem=W źródle caudy ćwierćnut i ósemek po prawej, na środku i po lewej	!LO:TX:b:t=P:problem=W źródle caudy ćwierćnut i ósemek po prawej, na środku i po lewej
!LO:TX:b:t=P:problem=w źródle na początku systemu klucz F, bemol, klucz g, metrum oraz trzy tajemnicze ćwierćnuty	!
8r	4aa\
8a 8f/	.
*tremolo	*
8a 8f/L	16.aa\LL
.	32bb-\K
8a 8f/	16.gg\
.	32aa\JJk
8a 8f/	8ff\L
8a 8f/J	16ff\L
.	16aa\JJ
*Xtremolo	*
=2	=2
8r	8gg\L
8g 8c/	8cc\J
*tremolo	*
8g 8e/L	8r
.	16qqdd/LL
.	16qqcc/
.	16qqbn/JJ
8g 8e/	8cc\L
8g 8e/	8dd\
8g 8e/J	8ee\J
*Xtremolo	*
=3	=3
8r	4ff\
8f 8A/	.
*tremolo	*
8f 8A/L	16ff\LL
.	16gg\
8f 8A/	16aa\
.	16bb-\JJ
8f 8A/	16ddd\LL
.	16ccc\
8f 8A/J	16bb-\
.	16aa\JJ
*Xtremolo	*
=4	=4
8r	8gg\L
8e 8G/	8ccc\J
*tremolo	*
8e 8c 8G/L	8r
8e 8c 8G/	16ddd\LL
.	16ccc\JJ
8e 8c 8G/	8bb-\L
8e 8c 8G/J	8gg\J
*Xtremolo	*
=5	=5
*clefF4	*
.	16qqa/LL
.	16qqgg/JJ
16F\LL	4aa\
16c\	.
16A\	.
16c\JJ	.
*rep	*
16F\LL	16.aa\LL
16c\	.
!	!LO:N:vis=16
.	32bb-\K
16A\	16.gg\
16c\JJ	.
!	!LO:N:vis=16
.	32aa\JJk
*Xrep	*
*rep	*
16F\LL	8ff\L
16c\	.
16A\	16ff\L
16c\JJ	16aa\JJ
*Xrep	*
=6	=6
.	8qqaa/
16C\LL	16gg\LL
16c\	16ff#X\
16A\	16gg\
16c\JJ	16ee\JJ
16G\LL	8cc\L
16c\	.
.	16qqdd/LL
.	16qqcc/
.	16qqbn/JJ
16E\	8cc\
16c\JJ	.
16C\LL	8dd\
16c\	.
16E\	8ee\J
16c\JJ	.
=7	=7
16F\LL	16ff\LL
16c\	16dd\
16A\	16gg\
16c\JJ	16ee\JJ
*rep	*
16F\LL	16aa\LL
16c\	16gg\
16A\	16bb-\
16c\JJ	16aa\JJ
*Xrep	*
*rep	*
16F\LL	16ddd\LL
16c\	16ccc\
16A\	16bb-\
16c\JJ	16aa\JJ
*Xrep	*
=8	=8
4C\	16ccc\LL
.	16bb-\
.	16aa\
.	16gg\JJ
4B- 4G\	4gg\
8A 8F\	8ff\
8r	8r
!!LO:LB:g=original
=9:|!|:	=9:|!|:
*>B	*>B
*clefG2	*
8r	16.bn\LL
.	32cc\K
8g 8c/	16.b\
.	32cc\JJk
*tremolo	*
!	!LO:N:vis=8.
8g 8c/L	8bb-\L
8g 8c/	16gg\Jk
.	16r
!	!LO:N:vis=8.
8g 8c/	8gg\L
8g 8c/J	16ee\Jk
.	16r
*Xtremolo	*
=10	=10
8r	16.ee\LL
.	32ff\K
8f/	16.ee\
.	32ff\JJk
*tremolo	*
8f 8A/L	8aa\L
8f 8A/	16ff\Jk
.	16r
8f 8A/	8ff\L
8f 8A/J	16cc\Jk
.	16r
*Xtremolo	*
*clefF4	*
=11	=11
4c\	8.b-L 8.g/
!	!LO:N:vis=8
.	16a/K
4C/	8.g 8.e/
.	16ddK 16b-/
4r	8cc 8a/
.	8b-J 8g/
=12	=12
4F 4FF/	16ccLL 16a/
.	16dd 16b-/
.	16cc 16a/
.	16b-JJ 16g/
8r	8a 8f/
8F 8FF/	8r
8AL 8AA/	4r
8FJ 8FF/	.
=13	=13
8dL 8B-\	4bn\
8G\J	.
*rep	*
8dL 8B-\	16b\LL
.	16cc\
8G\J	16dd\
.	16ee\JJ
*Xrep	*
*rep	*
8dL 8B-\	16ff\LL
.	16dd\
8G\J	16cc\
.	16b\JJ
*Xrep	*
=14	=14
.	8qqdd/
8eL 8c\	16cc\LL
.	16bn\
8G\J	16cc\
.	16dd\JJ
*rep	*
8eL 8c\	16ee\LL
.	16dd\
8G\J	16ee\
.	16ff\JJ
*Xrep	*
*rep	*
8eL 8c\	16gg\LL
.	16ee\
8G\J	16dd\
.	16cc\JJ
*Xrep	*
=15	=15
.	8qqee/
4d 4B- 4F\	16dd\LL
.	16cc#X\
.	16dd\
.	16ee\JJ
.	8qqgg/
8r	16ff\LL
.	16ee\
8dL 8B- 8F\	16ff\
.	16gg\JJ
8d 8B- 8F\	16aa\LL
.	16ff\
8dJ 8B- 8F\	16ee\
.	16dd\JJ
=16	=16
4f 4d 4G\	16cc/LL
.	16bn/
.	16a/
.	16g/JJ
8r	16f#X/LL
.	16g/
8f 8d 8G\	16a/
.	16b/JJ
4e 4c\	8cc\
.	8r
!!LO:LB:g=original
=17:|!|:;;	=17:|!|:;;
*>C	*>C
*clefG2	*
8g/L	16cc\LL
.	16dd\
8c/J	16cc\
.	16bn\JJ
*rep	*
8g/L	8.cc\L
8c/J	.
.	16aa\Jk
*Xrep	*
*rep	*
8g/L	8gg\
8c/J	8r
*Xrep	*
=18	=18
8gL 8e/	16cc\LL
.	16dd\
8c/J	16cc\
.	16bn\JJ
*rep	*
8gL 8e/	8.cc\L
8c/J	.
.	16bb-X\Jk
*Xrep	*
*rep	*
8gL 8e/	4gg\
8c/J	.
*Xrep	*
=19	=19
8aL 8f/	16cc\LL
.	16dd\
8c/J	16cc\
.	16bn\JJ
*rep	*rep
8aL 8f/	16cc\LL
.	16dd\
8c/J	16cc\
.	16b\JJ
*Xrep	*Xrep
*rep	*
8aL 8f/	8.cc\L
8c/J	.
.	16aa\Jk
*Xrep	*
=20	=20
4g/ 4e 4c\	8.gg\L
.	16ff\Jk
8r	16ee\LL
.	16cc\
8g/ 8e\	16dd\
.	16ee\JJ
4a/ 4f\	4ff\
=21:|!|:	=21:|!|:
*>D	*>D
*clefF4	*
8EL 8C#X/	16aa\LL
.	16bb-\
8AA/J	16aa\
.	16gg#X\JJ
*rep	*rep
8EL 8C#/	16aa\LL
.	16bb-\
8AA/J	16aa\
.	16gg#\JJ
*Xrep	*Xrep
*rep	*
8EL 8C#/	8.aa\L
8AA/J	.
.	16ggn\Jk
*Xrep	*
=22	=22
8FL 8D/	16.gg\LL
.	32ff\K
.	8qqgg/
8AA/J	16.ff\
.	32ee\JJk
8GL 8E/	16.ee\LL
.	32dd\K
.	8qqee/
8AA/J	16.dd\
.	32cc#X\JJk
4F 4D/	4dd\
=23	=23
8BB-L 8GG/	16gg\LL
.	16aa\
8GG/J	16gg\
.	16ff#X\JJ
*rep	*rep
8BB-L 8GG/	16gg\LL
.	16aa\
8GG/J	16gg\
.	16ff#\JJ
*Xrep	*Xrep
*rep	*
8BB-L 8GG/	8.gg\L
8GG/J	.
.	16ffn\Jk
*Xrep	*
=24	=24
8EL 8C/	16ff\LL
.	16ee\
.	8qqff/
8GG/J	16ee\
.	16dd\JJ
8FL 8D/	16dd\LL
.	16cc\
.	8qqdd/
8GG/J	16cc\
.	16bn\JJ
4E 4C/	4cc\
!LO:TX:a:t=P:problem=ozdobna kreska końcowa &colon;||&colon; połączona z repetycją	!LO:TX:a:t=P:problem=ozdobna kreska końcowa &colon;||&colon; połączona z repetycją
==:|!;;	==:|!;;
*-	*-
!!title: @{OTL};
!!!RDF**kern: > = above
!!!RDF**kern: < = below
!!!EED: Wojciech Jakubiak-Danek
!!!EST: 2020-12-10
!!!URL-scan: http://bc.bdsandomierz.pl/dlibra/publication/1321/edition/1289/content
!!!ONB-nifc: Str. 4
!!!AIN: 1 empty 1 piano
!!!ENC: Mateusz Solarz
!!!END: 2020-06-19
